images/downloads-icon-3.svg

<svg width="60" height="60" viewBox="0 0 60 60" fill="none" xmlns="http://www.w3.org/2000/svg">
<path fill-rule="evenodd" clip-rule="evenodd" d="M35.6983 5.38C34.7733 5 33.5983 5 31.2508 5C28.9033 5 27.7308 5 26.8033 5.38C26.193 5.62936 25.6381 5.99695 25.1704 6.46162C24.7027 6.92628 24.3316 7.47884 24.0783 8.0875C23.8433 8.645 23.7533 9.2975 23.7158 10.245C23.6979 10.9313 23.506 11.6017 23.1579 12.1934C22.8098 12.7851 22.317 13.2786 21.7258 13.6275C21.1226 13.9628 20.4446 14.1404 19.7546 14.1439C19.0646 14.1474 18.3848 13.9766 17.7783 13.6475C16.9333 13.2025 16.3208 12.9575 15.7158 12.8775C14.3922 12.7048 13.054 13.0605 11.9908 13.8675C11.1958 14.4725 10.6083 15.4825 9.43579 17.5C8.26079 19.5175 7.67579 20.525 7.54329 21.5125C7.36829 22.8275 7.72829 24.1575 8.54329 25.21C8.91329 25.69 9.43579 26.0925 10.2433 26.5975C11.4358 27.34 12.2008 28.605 12.2008 30C12.2008 31.395 11.4358 32.66 10.2458 33.4C9.43579 33.9075 8.91329 34.31 8.54079 34.79C8.1397 35.3105 7.84516 35.905 7.674 36.5395C7.50284 37.1739 7.45843 37.8359 7.54329 38.4875C7.67579 39.4725 8.26079 40.4825 9.43579 42.5C10.6108 44.5175 11.1958 45.525 11.9908 46.1325C13.0508 46.94 14.3908 47.295 15.7158 47.1225C16.3208 47.0425 16.9333 46.7975 17.7783 46.3525C18.3851 46.0229 19.0653 45.852 19.7559 45.8555C20.4464 45.859 21.1248 46.0368 21.7283 46.3725C22.9433 47.0725 23.6633 48.36 23.7158 49.755C23.7533 50.705 23.8433 51.355 24.0783 51.9125C24.5883 53.1375 25.5683 54.1125 26.8033 54.62C27.7283 55 28.9033 55 31.2508 55C33.5983 55 34.7733 55 35.6983 54.62C36.3086 54.3706 36.8635 54.003 37.3312 53.5384C37.7988 53.0737 38.17 52.5212 38.4233 51.9125C38.6583 51.355 38.7483 50.705 38.7858 49.755C38.8358 48.36 39.5583 47.07 40.7758 46.3725C41.3789 46.0372 42.0569 45.8596 42.747 45.8561C43.437 45.8526 44.1168 46.0234 44.7233 46.3525C45.5683 46.7975 46.1808 47.0425 46.7858 47.1225C48.1108 47.2975 49.4508 46.94 50.5108 46.1325C51.3058 45.5275 51.8933 44.5175 53.0658 42.5C54.2408 40.4825 54.8258 39.475 54.9583 38.4875C55.0428 37.8357 54.998 37.1736 54.8264 36.5392C54.6548 35.9047 54.3598 35.3103 53.9583 34.79C53.5883 34.31 53.0658 33.9075 52.2583 33.4025C51.0658 32.66 50.3008 31.395 50.3008 30C50.3008 28.605 51.0658 27.34 52.2558 26.6C53.0658 26.0925 53.5883 25.69 53.9608 25.21C54.3619 24.6895 54.6564 24.095 54.8276 23.4605C54.9987 22.8261 55.0431 22.1641 54.9583 21.5125C54.8258 20.5275 54.2408 19.5175 53.0658 17.5C51.8908 15.4825 51.3058 14.475 50.5108 13.8675C49.4476 13.0605 48.1093 12.7048 46.7858 12.8775C46.1808 12.9575 45.5683 13.2025 44.7233 13.6475C44.1165 13.9771 43.4362 14.148 42.7457 14.1445C42.0552 14.141 41.3767 13.9632 40.7733 13.6275C40.1826 13.2783 39.6903 12.7846 39.3426 12.193C38.995 11.6013 38.8034 10.931 38.7858 10.245C38.7483 9.295 38.6583 8.645 38.4233 8.0875C38.17 7.47884 37.7988 6.92628 37.3312 6.46162C36.8635 5.99695 36.3086 5.62936 35.6983 5.38ZM31.2508 37.5C35.4258 37.5 38.8083 34.1425 38.8083 30C38.8083 25.8575 35.4233 22.5 31.2508 22.5C27.0783 22.5 23.6933 25.8575 23.6933 30C23.6933 34.1425 27.0783 37.5 31.2508 37.5Z" fill="#2EA844"/>
</svg>

<svg width="60" height="60" fill="none" xmlns="http://www.w3.org/2000/svg"><path fill-rule="evenodd" clip-rule="evenodd" d="M35.698 5.38C34.773 5 33.598 5 31.251 5c-2.348 0-3.52 0-4.448.38a5 5 0 00-2.725 2.708c-.235.557-.325 1.21-.362 2.157a4.05 4.05 0 01-1.99 3.383 4.1 4.1 0 01-3.948.02c-.845-.445-1.457-.69-2.062-.77a5.075 5.075 0 00-3.725.99c-.795.604-1.383 1.614-2.555 3.632-1.175 2.017-1.76 3.025-1.893 4.012a4.967 4.967 0 001 3.698c.37.48.893.883 1.7 1.387 1.193.743 1.958 2.008 1.958 3.403s-.765 2.66-1.955 3.4c-.81.508-1.333.91-1.705 1.39a5 5 0 00-.998 3.697c.133.985.718 1.995 1.893 4.013 1.175 2.017 1.76 3.025 2.555 3.633a5.068 5.068 0 003.725.99c.605-.08 1.217-.325 2.062-.77a4.1 4.1 0 013.95.02c1.215.7 1.935 1.987 1.988 3.382.037.95.127 1.6.362 2.157a5.014 5.014 0 002.725 2.708c.925.38 2.1.38 4.448.38 2.347 0 3.522 0 4.447-.38a5.002 5.002 0 002.725-2.707c.235-.558.325-1.208.363-2.158.05-1.395.772-2.685 1.99-3.383a4.1 4.1 0 013.947-.02c.845.446 1.458.69 2.063.77a5.057 5.057 0 003.725-.99c.795-.604 1.382-1.614 2.555-3.632 1.175-2.017 1.76-3.025 1.892-4.013a5 5 0 00-1-3.697c-.37-.48-.892-.883-1.7-1.387-1.192-.743-1.957-2.008-1.957-3.403s.765-2.66 1.955-3.4c.81-.508 1.332-.91 1.705-1.39a5 5 0 00.997-3.698c-.132-.985-.717-1.995-1.892-4.012-1.175-2.018-1.76-3.025-2.555-3.633a5.075 5.075 0 00-3.725-.99c-.605.08-1.218.325-2.063.77a4.1 4.1 0 01-3.95-.02 4.05 4.05 0 01-1.987-3.382c-.038-.95-.128-1.6-.363-2.157a5.001 5.001 0 00-2.725-2.708zM31.251 37.5c4.175 0 7.557-3.358 7.557-7.5 0-4.142-3.385-7.5-7.557-7.5-4.173 0-7.558 3.358-7.558 7.5 0 4.142 3.385 7.5 7.558 7.5z" fill="#2EA844"/></svg>
